X:102
T:Reels simple chords 162
M:3/4
L:1/16
K:Bm
fg[a2A,2C2E2] a4 e2[aA,CE]b | age4[gG,B,D]f gage | de[gG,B,D]f gag2 d2[e2A,2C2E2] | fga2 ae[aA,CE]b age2 | f2[gE,G,B,]d BAGA Bd[c2A,2C2E2] |
A2A2 fg[a2A,2C2E2] a4 | e2[aA,CE]b age4[gG,B,D]f | gage de[gG,B,D]f gag2 | d2[e2A,2C2E2] fga2 ae[aA,CE]b |
age2 f2[gE,G,B,]d BAGA | Bd[c2A,2C2E2] A2A2 e2[eA,CE]c | ccAc cc[AA,CE]c BAG2 | B2[BG,B,D]d BABd BA[BG,B,D]d |
BAG2 B2[AA,CE]B cde2 | fg[aD,F,A,]f ged2 gf[eE,G,B,]d | BAGA Bd[c2A,2C2E2] A2A2 | e2[eA,CE]c ccAc cc[AA,CE]c |
BAG2 B2[BG,B,D]d BABd | BA[BG,B,D]d BAG2 B2[AA,CE]B | cde2 fg[aD,F,A,]f ged2 | gf[eE,G,B,]d BAGA Bd[c2A,2C2E2] |
A2A2 |


